src/assets/images/pinterest.svg

<svg width="25" height="25" viewBox="0 0 25 25" fill="none" xmlns="http://www.w3.org/2000/svg">
<g clip-path="url(#clip0)">
<path d="M12.5 25C19.4035 25 24.9998 19.4037 24.9998 12.5002C24.9998 5.59679 19.4035 0.00044632 12.5 0.00044632C5.59659 0.00044632 0.000244141 5.59679 0.000244141 12.5002C0.000244141 19.4037 5.59659 25 12.5 25Z" fill="#CB2027"/>
<path d="M13.509 16.7387C12.564 16.6656 12.1669 16.197 11.4258 15.7472C11.0185 17.8842 10.5207 19.9328 9.04631 21.0031C8.59064 17.773 9.71432 15.347 10.2362 12.7718C9.34667 11.2745 10.3431 8.26062 12.2193 9.00328C14.5284 9.9164 10.2201 14.5709 13.1123 15.1522C16.1318 15.7592 17.3644 9.91306 15.4918 8.01151C12.7863 5.26614 7.61669 7.94912 8.2524 11.8792C8.40726 12.84 9.40015 13.1317 8.64902 14.4575C6.91748 14.074 6.40098 12.7083 6.46738 10.8877C6.57456 7.90745 9.14524 5.82074 11.7237 5.53196C14.9847 5.16698 18.0454 6.7294 18.4678 9.79675C18.9431 13.2587 16.9956 17.0079 13.509 16.7387Z" fill="#F1F2F2"/>
</g>
<defs>
<clipPath id="clip0">
<rect width="25" height="25" fill="white"/>
</clipPath>
</defs>
</svg>

<svg width="25" height="25" fill="none" xmlns="http://www.w3.org/2000/svg"><g clip-path="url(#clip0)"><path d="M12.5 25C19.404 25 25 19.404 25 12.5 25 5.597 19.404 0 12.5 0 5.597 0 0 5.597 0 12.5 0 19.404 5.597 25 12.5 25z" fill="#CB2027"/><path d="M13.509 16.739c-.945-.073-1.342-.542-2.083-.992-.408 2.137-.905 4.186-2.38 5.256-.455-3.23.668-5.656 1.19-8.231-.89-1.498.107-4.511 1.983-3.769 2.31.913-1.999 5.568.893 6.15 3.02.606 4.252-5.24 2.38-7.141-2.706-2.746-7.875-.063-7.24 3.867.155.961 1.148 1.253.397 2.579-1.732-.384-2.248-1.75-2.182-3.57.108-2.98 2.678-5.067 5.257-5.356 3.26-.365 6.321 1.197 6.744 4.265.475 3.462-1.472 7.21-4.959 6.942z" fill="#F1F2F2"/></g><defs><clipPath id="clip0"><path fill="#fff" d="M0 0h25v25H0z"/></clipPath></defs></svg>
